svg/m/CW.svg

<svg width="20" height="15" viewBox="0 0 20 15" fill="none" xmlns="http://www.w3.org/2000/svg">
<mask id="mask0" mask-type="alpha" maskUnits="userSpaceOnUse" x="0" y="0" width="20" height="15">
<rect width="20" height="15" fill="white"/>
</mask>
<g mask="url(#mask0)">
<path fill-rule="evenodd" clip-rule="evenodd" d="M0 0V15H20V0H0Z" fill="#2E42A5"/>
<mask id="mask1" mask-type="alpha" maskUnits="userSpaceOnUse" x="0" y="0" width="20" height="15">
<path fill-rule="evenodd" clip-rule="evenodd" d="M0 0V15H20V0H0Z" fill="white"/>
</mask>
<g mask="url(#mask1)">
<path fill-rule="evenodd" clip-rule="evenodd" d="M2.65901 3.84327L1.41599 4.49932L2.01615 3.33158L1.25 2.47697L2.20209 2.44183L2.65901 1.25L3.00771 2.44183L4.12186 2.47697L3.31967 3.33158L3.82857 4.49932L2.65901 3.84327Z" fill="#F7FCFF"/>
<path fill-rule="evenodd" clip-rule="evenodd" d="M7.09518 6.9228L5.56104 7.56544L6.1629 5.95505L4.82904 4.8745H6.42735L7.09518 3.13257L7.60482 4.8745H9.2056L8.06808 5.95505L8.63291 7.56544L7.09518 6.9228Z" fill="#F7FCFF"/>
<path fill-rule="evenodd" clip-rule="evenodd" d="M0 8.75V11.25H20V8.75H0Z" fill="#F9E813"/>
</g>
</g>
</svg>

<svg width="20" height="15" fill="none" xmlns="http://www.w3.org/2000/svg">
  <mask id="a" maskUnits="userSpaceOnUse" x="0" y="0" width="20" height="15">
    <path fill="#fff" d="M0 0h20v15H0z"/>
  </mask>
  <g mask="url(#a)">
    <path fill-rule="evenodd" clip-rule="evenodd" d="M0 0v15h20V0H0z" fill="#2E42A5"/>
    <mask id="b" maskUnits="userSpaceOnUse" x="0" y="0" width="20" height="15">
      <path fill-rule="evenodd" clip-rule="evenodd" d="M0 0v15h20V0H0z" fill="#fff"/>
    </mask>
    <g mask="url(#b)" fill-rule="evenodd" clip-rule="evenodd">
      <path d="M2.659 3.843L1.416 4.5l.6-1.167-.766-.855.952-.035.457-1.192.349 1.192 1.114.035-.802.855.509 1.167-1.17-.656zm4.436 3.08l-1.534.642.602-1.61-1.334-1.08h1.598l.668-1.742.51 1.742h1.6l-1.137 1.08.565 1.61-1.538-.642z" fill="#F7FCFF"/>
      <path d="M0 8.75v2.5h20v-2.5H0z" fill="#F9E813"/>
    </g>
  </g>
</svg>
